package/converter/svg/regular/table-columns.svg

<svg xmlns="http://www.w3.org/2000/svg" viewBox="0 0 512 512"><!-- Font Awesome Pro 6.0.0-alpha2 by @fontawesome - https://fontawesome.com License - https://fontawesome.com/license (Commercial License) --><path d="M448 32H64C28.654 32 0 60.652 0 96V416C0 451.346 28.654 480 64 480H448C483.346 480 512 451.346 512 416V96C512 60.652 483.346 32 448 32ZM232 432H64C55.163 432 48 424.837 48 416V144H232V432ZM464 416C464 424.837 456.837 432 448 432H280V144H464V416Z"/></svg>

<svg xmlns="http://www.w3.org/2000/svg" viewBox="0 0 512 512"><!--! Font Awesome Pro 6.6.0 by @fontawesome - https://fontawesome.com License - https://fontawesome.com/license (Commercial License) Copyright 2024 Fonticons, Inc. --><path d="M48 416l0-256 184 0 0 272L64 432c-8.8 0-16-7.2-16-16zm232 16l0-272 184 0 0 256c0 8.8-7.2 16-16 16l-168 0zM64 32C28.7 32 0 60.7 0 96L0 416c0 35.3 28.7 64 64 64l384 0c35.3 0 64-28.7 64-64l0-320c0-35.3-28.7-64-64-64L64 32z"/></svg>
